X: 1
T:Blodau'r Drain
T:Flowers of the Thorn
M:3/4
L:1/8
Q:160
C:Trad
S:Blodau'r Grug Collection Vol. 1
R:Waltz
A:Wales
Z:brian_martin12345@yahoo.com
K:Am
E2|A4B2|c2B2A2|e2 dcBA|B4E2|A2 AcBd|c2B2A2|^G2 GBAc|B4:||!
B2|c4c2|d4d2|e2e2f2|e4d2|cBcdc2|dcded2|edefef|g3f ed|!
cBcdec|d^cdefd|e2e2a2|^g4b2|a2e2c2|f2e2d2|c2dcBc|A4||
